X:1
T:Sherborne (Mendelssohn), 77.77
T:Sherborne (Mendelssohn), 77.77
T:Arranged from Felix Mendelssohn (1809-1847)
T:Public Domain Courtesy of the Cyber Hymnal™
C:Arranged from Felix Mendelssohn (1809-1847)
Z:Public Domain
Z:Courtesy of the Cyber Hymnal™
%%score ( 1 2 ) ( 3 4 )
L:1/8
Q:1/4=110
M:4/4
K:D
V:1 treble 
V:2 treble 
V:3 bass 
V:4 bass 
V:1
 [A,D]2 [A,D]2 [DF]2 [DF]2 | [DA]3 [DG] [DF]4 | [DF]2 [DF]2 [DG]2 [GB]2 | [Gd]2 [Gd]2 [Fd]4 | %4
 [CE]2 [DF]2 [EG]2 [FA]2 | [Gc]3 [GB] [GA]4 | F2 [EF]2 [^DF]2 [=DB]2 | E3 z F D4 |] %8
V:2
 x8 | x8 | x8 | x8 | x8 | x8 | F2 x6 | D2 (C2 D4) x |] %8
V:3
 [D,F,]2 [D,F,]2 [D,A,]2 [D,A,]2 | [D,=C]3 [D,B,] [D,A,]4 | [D,A,]2 [D,=C]2 [D,B,]2 [D,B,]2 | %3
 [D,_B,]2 [D,B,]2 [D,A,]4 | [G,A,]2 [F,A,]2 [E,C]2 [D,D]2 | [A,,E]3 [A,,D] [A,,C]4 | %6
 [D,A,]2 [C,^A,]2 [B,,B,]2 [^G,,E,]2 | E,2 z [D,F,]4 x2 |] %8
V:4
 x8 | x8 | x8 | x8 | x8 | x8 | x8 | A,,3 (G,2 A,,) x3 |] %8

